X:152
T: Adam und Eva (2-44), S. 119
N: K1127
O: Luxemburg
S: KINTZELE, Guillaume: An der Ucht, Bd. 2, Luxemburg 1927]
N: in der Quelle mit einer 2. Stimme versehen
R: Scherzlied]
M: 4/4
L: 1/16
K: F
A2G2 | F6F2F2F2E2F2 | G4G4z4
B2A2 | G6G2G2G2c2B2 | A4A2z6
A2A2 | G6G2A2G2A2=B2 | c8z4
c2c2 | d6c2c2B2A2G2 | F8z4
c3B | A4A3AA2A2G2A2 | B8z4
B3A | G4c3cc2c2d2c2 | A8z4
c3B | A4A3AA2A2G2A2 | B8z4
B3A | G4c3cc2c2d2c2 | F8z4
c3B | A4A3AA2A2G2A2 | B8z4
B3A | G4c3cc2c2d2c2 | A8z4
c3B | A4A3AA2A2G2A2 | B8z4
B3A | G4c3cc2c2d2c2 | F8z4

